packages/core/src/svgs/tokens/mono/GALEON.svg

<svg width="24" height="24" viewBox="0 0 24 24" fill="none" xmlns="http://www.w3.org/2000/svg">
<path d="M18 11.9996C18 14.853 16.0001 18.2331 13.3334 19.113V20.6664H20.6667L22 17.333H20.6667C20.3334 17.9997 19.4668 19.333 18.6667 19.333H16.6201C18.2099 18.3312 19.4311 16.8399 20.0997 15.0837C20.7683 13.3274 20.8478 11.4015 20.3265 9.59597C19.8051 7.79062 18.7111 6.20356 17.2093 5.07404C15.7074 3.94451 13.8792 3.33374 12.0001 3.33374C10.1208 3.33374 8.29257 3.94451 6.79073 5.07404C5.2889 6.20356 4.19488 7.79062 3.67353 9.59597C3.1522 11.4015 3.23179 13.3274 3.90032 15.0837C4.56885 16.8399 5.7901 18.3312 7.38001 19.333H5.33335C4.53334 19.333 3.66667 17.9997 3.33333 17.333H2L3.33333 20.6664H10.6667V19.113C8.00001 18.2331 6.00001 14.853 6.00001 11.9996C6.00001 8.68633 8.68668 4.66633 12.0001 4.66633C15.3134 4.66633 18 8.68633 18 11.9996Z" fill="white"/>
</svg>

<svg xmlns="http://www.w3.org/2000/svg" width="24" height="24" fill="none" viewBox="0 0 24 24">
    <path fill="#fff" d="M18 12c0 2.853-2 6.233-4.667 7.113v1.553h7.334L22 17.333h-1.333c-.334.667-1.2 2-2 2H16.62a8.668 8.668 0 1 0-9.24 0H5.333c-.8 0-1.666-1.333-2-2H2l1.333 3.333h7.334v-1.553C8 18.233 6 14.853 6 12c0-3.314 2.687-7.334 6-7.334s6 4.02 6 7.334"/>
</svg>
